X:1
T:[ID 3-5]
T:[ID 3-5]
T:Bezeichnung standardisiert: Menuett Men: 2.
T:Urheber unbekannt Datum in der hier transkribierten schriftlichen Quelle: 1767
C:Urheber unbekannt
C:Datum in der hier transkribierten schriftlichen Quelle: 1767
%%score 1 2
L:1/8
M:3/4
K:D
V:1 treble nm="Primo"
V:2 treble nm="Secondo"
V:1
 a2 aaaa | a2 f2 a2 | a2 f2 a2 | g2 gggg | g2 e2 g2 | g2 e2 g2 | f2 ffff | f2 ag f2 | e2 eeee | %9
 e6 :: e2 eeee | e2 c2 e2 | e2 c2 e2 | f2 ffff | f2 d2 f2 | f2 d2 f2 | g2 gggg | !fermata!g4 z2 | %18
 a2 aaaa | a2 f2 z2 | a2 f2 z2 | g2 gggg | g2 e2 z2 | g2 e2 z2 | f2 ffff | f2 ag f2 | fd Te4 | %27
 d6 :| %28
V:2
 f2 ffff | f2 d2 f2 | f2 d2 f2 | e2 eeee | e2 c2 e2 | e2 c2 e2 | d2 dddd | d2 fe d2 | c2 cccc | %9
 c6 :: c2 cccc | c2 A2 c2 | c2 A2 c2 | d2 dddd | d2 F2 d2 | d2 F2 d2 | e2 eeee | !fermata!e4 z2 | %18
 f2 ffff | f2 d2 z2 | f2 d2 z2 | e2 eeee | e2 c2 z2 | e2 c2 z2 | d2 dddd | d2 fe d2 | dF TG4 | %27
 F6 :| %28

